src/lib/assets/saving-dark.svg

<?xml version="1.0" encoding="iso-8859-1"?>
<!-- Generator: Adobe Illustrator 18.0.0, SVG Export Plug-In . SVG Version: 6.00 Build 0)  -->
<!DOCTYPE svg PUBLIC "-//W3C//DTD SVG 1.1//EN" "http://www.w3.org/Graphics/SVG/1.1/DTD/svg11.dtd">
<svg version="1.1" id="Capa_1" xmlns="http://www.w3.org/2000/svg" xmlns:xlink="http://www.w3.org/1999/xlink" x="0px" y="0px"
	 viewBox="0 0 220 220" style="enable-background:new 0 0 220 220;" xml:space="preserve">
<path d="M158.505,10.987l12.99,7.5L154.29,48.289l-12.99-7.5L158.505,10.987z M209.013,61.495l-7.5-12.99L171.711,65.71l7.5,12.99
	L209.013,61.495z M185.59,117.5H220v-15h-34.41V117.5z M171.711,154.29l29.802,17.205l7.5-12.99L179.211,141.3L171.711,154.29z
	 M141.3,179.211l17.205,29.802l12.99-7.5l-17.205-29.802L141.3,179.211z M102.5,220h15v-34.41h-15V220z M48.505,201.513l12.99,7.5
	L78.7,179.211l-12.99-7.5L48.505,201.513z M10.987,158.505l7.5,12.99l29.802-17.205l-7.5-12.99L10.987,158.505z M0,117.5h34.41v-15
	H0V117.5z M48.288,65.71L18.487,48.505l-7.5,12.99L40.788,78.7L48.288,65.71z M48.505,18.487L65.71,48.288l12.99-7.5L61.495,10.987
	L48.505,18.487z M102.5,34.409h15V0h-15V34.409z"/>
<g>
</g>
<g>
</g>
<g>
</g>
<g>
</g>
<g>
</g>
<g>
</g>
<g>
</g>
<g>
</g>
<g>
</g>
<g>
</g>
<g>
</g>
<g>
</g>
<g>
</g>
<g>
</g>
<g>
</g>
</svg>

<svg width="220" height="220" viewBox="0 0 220 220" fill="none" xmlns="http://www.w3.org/2000/svg">
<g clip-path="url(#clip0_9_2)">
<path d="M158.505 10.987L171.495 18.487L154.29 48.289L141.3 40.789L158.505 10.987ZM209.013 61.495L201.513 48.505L171.711 65.71L179.211 78.7L209.013 61.495ZM185.59 117.5H220V102.5H185.59V117.5ZM171.711 154.29L201.513 171.495L209.013 158.505L179.211 141.3L171.711 154.29ZM141.3 179.211L158.505 209.013L171.495 201.513L154.29 171.711L141.3 179.211ZM102.5 220H117.5V185.59H102.5V220ZM48.505 201.513L61.495 209.013L78.7 179.211L65.71 171.711L48.505 201.513ZM10.987 158.505L18.487 171.495L48.289 154.29L40.789 141.3L10.987 158.505ZM0 117.5H34.41V102.5H0V117.5ZM48.288 65.71L18.487 48.505L10.987 61.495L40.788 78.7L48.288 65.71ZM48.505 18.487L65.71 48.288L78.7 40.788L61.495 10.987L48.505 18.487ZM102.5 34.409H117.5V0H102.5V34.409Z" fill="#6D6E6F"/>
</g>
<defs>
<clipPath id="clip0_9_2">
<rect width="220" height="220" fill="white"/>
</clipPath>
</defs>
</svg>
